X: 3
T: Foxhunter's Jig
R:Slip Jig
M:9/8
L:1/8
K:D
|: "D"FAF FDF "G"G2E | "D"FDF FDF "A7"E2D | "D"~F3 FEF "G"G2B | "D"AFD DEF "A7"E2"D"D :|
|: "G"B2B BAG "D"FGA | "Em"B2E E2F G2B | "A"ABc "G"dcB "A"ABc | "D"d2D DEF "A7"E2"D"D :|
|: "D"~f3 fdf "G"g2e | "D"~f3 fdf "A7"e2d | "D"~f3 fdf "G"g2b | "D"afd def "A7"e2"D"d :|
|: "G"gfe dcB "D"AGF | "Em"B2E E2F G2B | "A"ABc "G"dcB "A"ABc | "D"d2D DEF "A7"E2"D"D :|

%%sep 1 1 500
%%sep 1 1 500
